symbols/web/menu_book/materialsymbolssharp/menu_book_wght300grad200fill1_48px.svg

<svg xmlns="http://www.w3.org/2000/svg" height="48" width="48"><path d="M27.9 19.35v-1.8q1.6-.85 3.4-1.25 1.8-.4 3.7-.4 1.2 0 2.325.175 1.125.175 2.275.475v1.75q-1.1-.4-2.225-.575Q36.25 17.55 35 17.55q-1.9 0-3.7.475-1.8.475-3.4 1.325Zm0 10.95v-1.9q1.6-.8 3.4-1.175 1.8-.375 3.7-.375 1.2 0 2.325.175 1.125.175 2.275.425v1.8q-1.1-.4-2.225-.575Q36.25 28.5 35 28.5q-1.9 0-3.7.45-1.8.45-3.4 1.35Zm0-5.45V23q1.6-.8 3.4-1.225 1.8-.425 3.7-.425 1.2 0 2.325.175Q38.45 21.7 39.6 22v1.75q-1.1-.35-2.225-.525Q36.25 23.05 35 23.05q-1.9 0-3.7.475-1.8.475-3.4 1.325Zm-2.55 10.8q2.55-1.3 4.975-1.975T35.55 33q1.9 0 3.925.325t3.475.925v-21.3q-1.6-.85-3.525-1.225-1.925-.375-3.875-.375-2.8 0-5.375.825T25.35 14.55Zm-1.3 3.7q-2.5-1.8-5.475-2.8-2.975-1-6.125-1-2.9 0-5.75 1.075T2.55 38.35V11.2q2-1.15 4.65-1.775Q9.85 8.8 12.45 8.8q3.1 0 6.075.9t5.575 2.6q2.55-1.7 5.45-2.6 2.9-.9 6-.9 2.6 0 5.225.65 2.625.65 4.675 1.75v27.15q-1.3-.7-4.15-1.75-2.85-1.05-5.75-1.05-3.1 0-6.025 1-2.925 1-5.475 2.8Z"/></svg>

<svg xmlns="http://www.w3.org/2000/svg" height="48" width="48"><path d="M27.9 19.35V17.55Q29.5 16.7 31.3 16.3Q33.1 15.9 35 15.9Q36.2 15.9 37.325 16.075Q38.45 16.25 39.6 16.55V18.3Q38.5 17.9 37.375 17.725Q36.25 17.55 35 17.55Q33.1 17.55 31.3 18.025Q29.5 18.5 27.9 19.35ZM27.9 30.3V28.4Q29.5 27.6 31.3 27.225Q33.1 26.85 35 26.85Q36.2 26.85 37.325 27.025Q38.45 27.2 39.6 27.45V29.25Q38.5 28.85 37.375 28.675Q36.25 28.5 35 28.5Q33.1 28.5 31.3 28.95Q29.5 29.4 27.9 30.3ZM27.9 24.85V23Q29.5 22.2 31.3 21.775Q33.1 21.35 35 21.35Q36.2 21.35 37.325 21.525Q38.45 21.7 39.6 22V23.75Q38.5 23.4 37.375 23.225Q36.25 23.05 35 23.05Q33.1 23.05 31.3 23.525Q29.5 24 27.9 24.85ZM25.35 35.65Q27.9 34.35 30.325 33.675Q32.75 33 35.55 33Q37.45 33 39.475 33.325Q41.5 33.65 42.95 34.25V12.95Q41.35 12.1 39.425 11.725Q37.5 11.35 35.55 11.35Q32.75 11.35 30.175 12.175Q27.6 13 25.35 14.55ZM24.05 39.35Q21.55 37.55 18.575 36.55Q15.6 35.55 12.45 35.55Q9.55 35.55 6.7 36.625Q3.85 37.7 2.55 38.35V11.2Q4.55 10.05 7.2 9.425Q9.85 8.8 12.45 8.8Q15.55 8.8 18.525 9.7Q21.5 10.6 24.1 12.3Q26.65 10.6 29.55 9.7Q32.45 8.8 35.55 8.8Q38.15 8.8 40.775 9.45Q43.4 10.1 45.45 11.2V38.35Q44.15 37.65 41.3 36.6Q38.45 35.55 35.55 35.55Q32.45 35.55 29.525 36.55Q26.6 37.55 24.05 39.35Z"/></svg>
